frontend/public/svg/interface/user-caution.svg

<svg width="158" height="151" viewBox="0 0 158 151" fill="none" xmlns="http://www.w3.org/2000/svg">
<g clip-path="url(#clip0)">
<path d="M112.228 80.0366C116.488 79.8137 120.5 79.0917 124.397 79.489C142.009 81.2841 155.163 94.7186 156.951 112.327C158.562 128.174 150.663 141.213 135.808 146.976C124.741 151.27 113.578 151.95 102.423 147.243C94.6724 143.972 88.6519 138.836 85.2076 130.993C85.0357 130.604 84.7931 130.241 84.5349 129.78C81.2716 129.955 78.0739 130.134 74.8748 130.298C57.2559 131.194 39.6401 132.145 22.0166 132.941C17.2579 133.156 12.4797 132.925 7.70738 132.829C6.60098 132.799 5.50402 132.617 4.44744 132.288C1.32301 131.327 0.284957 129.17 1.38071 126.123C6.08505 112.82 13.3241 100.555 22.6978 90.0026C34.1341 77.1708 48.0882 69.0784 65.3861 67.3066C77.2194 66.0947 88.5851 68.0797 99.5108 72.6856C101.885 73.6078 104.199 74.6751 106.441 75.8838C108.444 77.1637 110.375 78.5499 112.228 80.0366ZM103.453 84.6534C94.2312 80.5175 85.3153 77.1073 75.4412 76.6524C61.7025 76.0192 49.2716 79.4715 38.412 87.9236C26.7408 97.0069 18.1914 108.674 11.2795 121.617C10.9801 122.281 10.7255 122.964 10.5179 123.662C16.7881 124.229 79.2403 119.974 83.1848 118.721C83.2821 118.26 83.4287 117.733 83.502 117.198C84.47 110.606 86.6505 104.25 89.9325 98.4495C91.0341 96.5338 92.4063 94.7853 94.0061 93.2598C96.9093 90.4057 100.02 87.7564 103.453 84.6534ZM118.854 138.891C124.197 138.857 129.47 137.678 134.317 135.432C137.996 133.798 141.077 131.066 143.136 127.609C147.905 119.564 146.986 106.553 140.952 99.4009C136.144 93.7024 130.134 89.7661 122.553 89.1426C113.759 88.42 106.285 91.5281 101.205 98.8027C96.1165 106.09 94.8897 114.526 95.8246 123.249C96.2606 126.818 98.0433 130.086 100.809 132.387C105.953 136.957 112.068 138.853 118.852 138.891H118.854Z" fill="black"/>
<path d="M67.4776 59.5951C59.9358 59.286 52.5484 57.7227 46.0543 53.1201C38.7194 47.9213 32.9292 38.2483 37.4757 26.1696C38.6211 23.0565 40.1732 20.1084 42.0916 17.4013C44.7149 13.8237 47.6104 10.4532 50.752 7.31989C57.8235 0.191128 69.8904 -1.57614 78.4125 3.64665C89.5893 10.4948 96.0853 20.7795 97.3628 33.7597C98.1205 41.4639 94.6866 48.029 88.5578 52.9277C82.4789 57.7863 75.3257 59.4221 67.4776 59.5951ZM66.4655 49.7722C71.184 49.6536 75.7714 49.0888 79.8819 46.5606C85.4736 43.122 87.7319 37.4636 86.0529 31.1443C84.7431 26.2047 82.0488 22.0557 78.5857 18.3908C75.1349 14.7396 71.097 12.273 65.844 12.1142C60.0603 11.9393 55.6839 15.0403 51.6545 18.4181C48.7026 20.893 46.9139 24.4827 45.7098 28.2473C43.0395 36.5951 45.9608 43.3844 53.9023 47.1711C57.8857 49.0744 62.15 49.5914 66.4655 49.7716V49.7722Z" fill="black"/>
<path d="M116.318 108.997C116.541 105.023 116.647 101.037 117.06 97.0822C117.257 95.7971 117.873 94.6124 118.812 93.7122C120.106 92.49 121.914 93.129 122.469 94.8554C122.802 96.0258 123.022 97.2254 123.124 98.4373C123.883 104.926 124.644 111.414 125.315 117.911C125.505 119.212 125.417 120.538 125.056 121.803C123.987 124.86 120.324 125.354 118.522 122.645C117.711 121.426 117.543 119.776 117.101 118.316C117.061 118.097 117.047 117.875 117.06 117.654L116.614 109.016L116.318 108.997Z" fill="black"/>
<path d="M116.933 131.475C116.941 130.953 117.053 130.438 117.262 129.961C117.47 129.482 117.772 129.05 118.149 128.69C118.527 128.329 118.972 128.046 119.459 127.858C119.946 127.67 120.466 127.581 120.988 127.596C121.455 127.613 121.915 127.722 122.34 127.917C122.765 128.112 123.147 128.39 123.464 128.733C123.782 129.077 124.028 129.479 124.188 129.918C124.349 130.357 124.422 130.822 124.402 131.29C124.297 132.335 123.819 133.308 123.056 134.03C122.292 134.753 121.294 135.177 120.243 135.225C119.774 135.212 119.313 135.102 118.888 134.903C118.463 134.704 118.084 134.419 117.773 134.067C117.463 133.716 117.229 133.305 117.084 132.859C116.939 132.412 116.888 131.942 116.933 131.475Z" fill="black"/>
</g>
<defs>
<clipPath id="clip0">
<rect width="157" height="151" fill="white" transform="translate(0.777344)"/>
</clipPath>
</defs>
</svg>

<svg xmlns="http://www.w3.org/2000/svg" width="158" height="151" fill="none" viewBox="0 0 158 151"><g fill="#000" clip-path="url(#a)"><path d="M112.228 80.037c4.26-.223 8.272-.945 12.169-.548 17.612 1.795 30.766 15.23 32.554 32.838 1.611 15.847-6.288 28.886-21.143 34.649-11.067 4.294-22.23 4.974-33.385.267-7.75-3.271-13.771-8.407-17.215-16.25-.172-.389-.415-.752-.673-1.213-3.263.175-6.461.354-9.66.518-17.62.896-35.235 1.847-52.858 2.643-4.76.215-9.537-.016-14.31-.112a12 12 0 0 1-3.26-.541c-3.124-.961-4.162-3.118-3.066-6.165a109.2 109.2 0 0 1 21.317-36.12c11.436-12.832 25.39-20.925 42.688-22.696 11.833-1.212 23.2.773 34.125 5.379a62 62 0 0 1 6.93 3.198 66 66 0 0 1 5.787 4.153m-8.775 4.616c-9.222-4.136-18.138-7.546-28.012-8-13.739-.634-26.17 2.819-37.029 11.27-11.671 9.084-20.22 20.751-27.132 33.694q-.45.997-.762 2.045c6.27.567 68.722-3.688 72.667-4.941.097-.461.244-.988.317-1.523a54 54 0 0 1 6.43-18.748 23 23 0 0 1 4.074-5.19c2.903-2.854 6.014-5.504 9.447-8.607m15.401 54.238a37.3 37.3 0 0 0 15.463-3.459 19.45 19.45 0 0 0 8.819-7.823c4.769-8.045 3.85-21.056-2.184-28.208-4.808-5.699-10.818-9.635-18.399-10.258-8.794-.723-16.268 2.385-21.348 9.66-5.088 7.287-6.315 15.723-5.38 24.446a14.1 14.1 0 0 0 4.984 9.138c5.144 4.57 11.259 6.466 18.043 6.504zM67.478 59.595c-7.542-.309-14.93-1.872-21.424-6.475-7.335-5.199-13.125-14.872-8.578-26.95a37.7 37.7 0 0 1 4.616-8.769 86.4 86.4 0 0 1 8.66-10.081C57.824.19 69.89-1.576 78.412 3.647c11.177 6.848 17.673 17.132 18.95 30.113.759 7.704-2.675 14.269-8.804 19.168-6.08 4.858-13.232 6.494-21.08 6.667m-1.012-9.823c4.718-.118 9.305-.683 13.416-3.211 5.592-3.439 7.85-9.097 6.17-15.417-1.309-4.94-4.003-9.088-7.466-12.753-3.451-3.651-7.489-6.118-12.742-6.277-5.784-.175-10.16 2.926-14.19 6.304-2.951 2.475-4.74 6.065-5.944 9.83-2.67 8.347.25 15.136 8.192 18.923 3.984 1.903 8.248 2.42 12.564 2.6z"/><path d="M116.318 108.997c.223-3.974.329-7.96.742-11.915a5.9 5.9 0 0 1 1.752-3.37c1.294-1.222 3.102-.583 3.657 1.143.333 1.17.553 2.37.655 3.582.759 6.489 1.52 12.977 2.191 19.474a9.3 9.3 0 0 1-.259 3.892c-1.069 3.057-4.732 3.551-6.534.842-.811-1.219-.979-2.869-1.421-4.329a2.8 2.8 0 0 1-.041-.662l-.446-8.638zm.615 22.478c.008-.522.12-1.037.329-1.514.208-.479.51-.911.887-1.271a3.93 3.93 0 0 1 2.839-1.094 3.55 3.55 0 0 1 2.476 1.137 3.54 3.54 0 0 1 .938 2.557 4.375 4.375 0 0 1-4.159 3.935 3.42 3.42 0 0 1-3.159-2.366 3.4 3.4 0 0 1-.151-1.384"/></g><defs><clipPath id="a"><path fill="#fff" d="M.777 0h157v151h-157z"/></clipPath></defs></svg>
